icon/hi/volume-off-outline.svg

<svg viewBox="0 0 24 24" fill="none" xmlns="http://www.w3.org/2000/svg" height="1em" width="1em">
  <path fill-rule="evenodd" clip-rule="evenodd" d="M5.58579 15.0001H4C3.44772 15.0001 3 14.5523 3 14.0001V10.0001C3 9.44777 3.44772 9.00005 4 9.00005H5.58579L10.2929 4.29294C10.9229 3.66298 12 4.10915 12 5.00005V19.0001C12 19.891 10.9229 20.3371 10.2929 19.7072L5.58579 15.0001Z" stroke="#4A5568" stroke-width="2" stroke-linecap="round" stroke-linejoin="round"/>
  <path d="M17 14L19 12M19 12L21 10M19 12L17 10M19 12L21 14" stroke="#4A5568" stroke-width="2" stroke-linecap="round" stroke-linejoin="round"/>
</svg>

<svg width="24" height="24" fill="none" xmlns="http://www.w3.org/2000/svg"><path clip-rule="evenodd" d="M5.586 15H4a1 1 0 0 1-1-1v-4a1 1 0 0 1 1-1h1.586l4.707-4.707C10.923 3.663 12 4.109 12 5v14c0 .891-1.077 1.337-1.707.707L5.586 15Z" stroke="#4A5568" stroke-width="2" stroke-linecap="round" stroke-linejoin="round"/><path d="m17 14 2-2m0 0 2-2m-2 2-2-2m2 2 2 2" stroke="#4A5568" stroke-width="2" stroke-linecap="round" stroke-linejoin="round"/></svg>
